Numix-GalliumOS/48/actions/package-purge.svg

<?xml version="1.0" encoding="UTF-8" standalone="no"?>
<svg
   xmlns:dc="http://purl.org/dc/elements/1.1/"
   xmlns:cc="http://creativecommons.org/ns#"
   xmlns:rdf="http://www.w3.org/1999/02/22-rdf-syntax-ns#"
   xmlns:svg="http://www.w3.org/2000/svg"
   xmlns="http://www.w3.org/2000/svg"
   xmlns:sodipodi="http://sodipodi.sourceforge.net/DTD/sodipodi-0.dtd"
   xmlns:inkscape="http://www.inkscape.org/namespaces/inkscape"
   width="48"
   height="48"
   viewBox="0 0 48 48"
   id="svg2"
   version="1.1"
   inkscape:version="0.48.5 r10040"
   sodipodi:docname="package-purge.svg">
  <metadata
     id="metadata18">
    <rdf:RDF>
      <cc:Work
         rdf:about="">
        <dc:format>image/svg+xml</dc:format>
        <dc:type
           rdf:resource="http://purl.org/dc/dcmitype/StillImage" />
      </cc:Work>
    </rdf:RDF>
  </metadata>
  <defs
     id="defs16" />
  <sodipodi:namedview
     pagecolor="#ffffff"
     bordercolor="#666666"
     borderopacity="1"
     objecttolerance="10"
     gridtolerance="10"
     guidetolerance="10"
     inkscape:pageopacity="0"
     inkscape:pageshadow="2"
     inkscape:window-width="640"
     inkscape:window-height="480"
     id="namedview14"
     showgrid="true"
     inkscape:zoom="4.9166667"
     inkscape:cx="32.140523"
     inkscape:cy="15.986528"
     inkscape:window-x="0"
     inkscape:window-y="0"
     inkscape:window-maximized="0"
     inkscape:current-layer="svg2">
    <inkscape:grid
       type="xygrid"
       id="grid3028" />
  </sodipodi:namedview>
  <path
     style="fill:#c19553"
     d="M 6.285156 4 C 5.144531 4 4 5.144531 4 6.285156 L 4 41.777344 C 4 42.855469 5.144531 44 6.222656 44 L 41.777344 44 C 42.859375 44 44 42.855469 44 41.777344 L 44 6.222656 C 44 5.144531 42.859375 4 41.777344 4 Z "
     id="path4" />
  <g
     style="fill:#fff"
     id="g6">
    <path
       style="fill-opacity:.196"
       d="M 6.285156 4 C 5.144531 4 4 5.144531 4 6.285156 L 4 18 C 8.445312 18 39.554688 18 44 18 L 44 6.222656 C 44 5.144531 42.859375 4 41.777344 4 Z "
       id="path8" />
    <path
       style="fill-opacity:.392"
       d="M 20 8 L 20 26 L 28 26 L 28 8 Z "
       id="path10" />
  </g>
  <g
     transform="matrix(0.49999998,0,0,0.49999998,24,24)"
     style="fill-rule:evenodd"
     id="g4">
    <path
       inkscape:connector-curvature="0"
       style="fill:#dc322f"
       d="M 44,24 C 44,35.046875 35.046875,44 24,44 12.953125,44 4,35.046875 4,24 4,12.953125 12.953125,4 24,4 35.046875,4 44,12.953125 44,24 z"
       id="path6" />
    <path
       inkscape:connector-curvature="0"
       style="fill:#ffffff"
       d="m 14.011719,14 0,3.332031 c -0.07422,0.9375 0.238281,1.890625 0.941406,2.539063 l 4.273437,4.203125 -4.273437,4.203125 c -0.628906,0.625 -0.941406,1.507812 -0.941406,2.390625 l 0,3.332031 3.332031,0 c 0.878906,0 1.761719,-0.316406 2.386719,-0.941406 l 4.273437,-4.277344 4.273438,4.277344 C 28.902344,33.683594 29.785156,34 30.667969,34 L 34,34 34,30.667969 c 0,-0.882813 -0.316406,-1.765625 -0.941406,-2.390625 l -4.199219,-4.203125 4.273437,-4.203125 C 33.847656,19.207031 34,18.289062 34,17.332031 L 34,14 30.667969,14 c -0.800781,0.02344 -1.433594,0.320312 -2.316407,1.085938 l -4.347656,4.203124 -4.273437,-4.203124 C 19.140625,14.476562 18.335938,14.039062 17.488281,14 17.453125,14 17.375,14 17.34375,14 z"
       id="path8-5" />
    <path
       inkscape:connector-curvature="0"
       style="fill:#dc322f;fill-opacity:0.10199998"
       d="m 14.011719,14 0,3.332031 c -0.07422,0.9375 0.238281,1.890625 0.941406,2.539063 l 4.273437,4.203125 -4.273437,4.203125 c -0.628906,0.625 -0.941406,1.507812 -0.941406,2.390625 l 0,3.332031 3.332031,0 c 0.878906,0 1.761719,-0.316406 2.386719,-0.941406 l 4.273437,-4.277344 4.273438,4.277344 C 28.902344,33.683594 29.785156,34 30.667969,34 L 34,34 34,30.667969 c 0,-0.882813 -0.316406,-1.765625 -0.941406,-2.390625 l -4.199219,-4.203125 4.273437,-4.203125 C 33.847656,19.207031 34,18.289062 34,17.332031 L 34,14 30.667969,14 c -0.800781,0.02344 -1.433594,0.320312 -2.316407,1.085938 l -4.347656,4.203124 -4.273437,-4.203124 C 19.140625,14.476562 18.335938,14.039062 17.488281,14 17.453125,14 17.375,14 17.34375,14 z"
       id="path10-8" />
  </g>
</svg>

<svg xmlns="http://www.w3.org/2000/svg" viewBox="0 0 48 48">
 <path d="m 6.285 4 c -1.141 0 -2.285 1.145 -2.285 2.285 l 0 35.492 c 0 1.078 1.145 2.223 2.223 2.223 l 35.555 0 c 1.082 0 2.223 -1.145 2.223 -2.223 l 0 -35.555 c 0 -1.078 -1.141 -2.223 -2.223 -2.223 Z" style="fill:#c19553"/>
 <g style="fill:#fff">
  <path d="m 6.285 4 c -1.141 0 -2.285 1.145 -2.285 2.285 l 0 11.715 c 4.445 0 35.555 0 40 0 l 0 -11.777 c 0 -1.078 -1.141 -2.223 -2.223 -2.223 Z" style="fill-opacity:0.196"/>
  <path d="m 20 8 l 0 18 l 8 0 l 0 -18 Z" style="fill-opacity:0.392"/>
 </g>
 <g transform="matrix(0.49999998,0,0,0.49999998,24,24)" style="fill-rule:evenodd">
  <path d="m 44 24 c 0 11.05 -8.953 20 -20 20 -11.05 0 -20 -8.953 -20 -20 0 -11.05 8.953 -20 20 -20 11.05 0 20 8.953 20 20 z" style="fill:#dc322f"/>
  <path d="m 14.01 14 0 3.332 c -0.074 0.938 0.238 1.891 0.941 2.539 l 4.273 4.203 -4.273 4.203 c -0.629 0.625 -0.941 1.508 -0.941 2.391 l 0 3.332 3.332 0 c 0.879 0 1.762 -0.316 2.387 -0.941 l 4.273 -4.277 4.273 4.277 c 0.625 0.625 1.508 0.941 2.391 0.941 l 3.332 0 0 -3.332 c 0 -0.883 -0.316 -1.766 -0.941 -2.391 l -4.199 -4.203 4.273 -4.203 c 0.715 -0.664 0.867 -1.582 0.867 -2.539 l 0 -3.332 -3.332 0 c -0.801 0.023 -1.434 0.32 -2.316 1.086 l -4.348 4.203 -4.273 -4.203 c -0.59 -0.609 -1.395 -1.047 -2.242 -1.086 -0.035 0 -0.113 0 -0.145 0 z" style="fill:#fff"/>
  <path d="m 14.01 14 0 3.332 c -0.074 0.938 0.238 1.891 0.941 2.539 l 4.273 4.203 -4.273 4.203 c -0.629 0.625 -0.941 1.508 -0.941 2.391 l 0 3.332 3.332 0 c 0.879 0 1.762 -0.316 2.387 -0.941 l 4.273 -4.277 4.273 4.277 c 0.625 0.625 1.508 0.941 2.391 0.941 l 3.332 0 0 -3.332 c 0 -0.883 -0.316 -1.766 -0.941 -2.391 l -4.199 -4.203 4.273 -4.203 c 0.715 -0.664 0.867 -1.582 0.867 -2.539 l 0 -3.332 -3.332 0 c -0.801 0.023 -1.434 0.32 -2.316 1.086 l -4.348 4.203 -4.273 -4.203 c -0.59 -0.609 -1.395 -1.047 -2.242 -1.086 -0.035 0 -0.113 0 -0.145 0 z" style="fill:#dc322f;fill-opacity:0.102"/>
 </g>
</svg>
